X:294
M:C|
L:1/8
K:B Minor
a|feac B2Ba|ecac A2Aa|feac Bcde|fedc dBBa|f>eac B2Ba|ecac A2Ac|
ecfc dBB2|FBDB FBdB|^GAEA CEA,E|FBdB Acea|f2ec dB~B||

